X: 61
T: Miss Balcarres Lindsay's Favourite
R: reel
B: William Shepherd "1st Collection" 1793 p.6 #1
F: http://imslp.org/wiki/File:PMLP73094-Shepherd_Collections_HMT.pdf
C: William Shepherd (17??-1812)
Z: 2012 John Chambers <jc:trillian.mit.edu>
M: 2/4
L: 1/16
K: D
A2 |\
Td3e f2g2 | {fg}a3f d2A2 | [B2G2][B2G2] efge | d3c B2A2 |\
Td3e f2g2 | {fg}a2f2 d2A2 | B2g2 {f}e2dc | ~d4 D2 :|
|: AG |\
F3G A2A2 | F3G A2A2 | [B2G2][B2G2] efge | d3c B2A2 |\
F3G A2A2 | F3G A2A2 |1 B3g fdec | ~d4 D2 :|2 B3g fedc | {c}~d4 D2 |]
